X:47
T:Effie's Hornpipe
M:2/4
L:1/16
Z: Jason R. Fruit <Jason R. Fruit@big-mac>
N: By James Christeson, a better collector than composer.
K:Bb
f2 | bfdg fdBc | dBGB FDCD | B,DGB dBGD | FAcd c2f2 |
bfdg fdBc | dBGB FDCD | B,DGB dBGD | FAcA B2 :|
|: FD | B,DFB dBFD | G,B,DG BGDG | AFAc fagf | =efgf dBFD | 
B,DFB dBGD | C=EGc =ec=Bc | AFAc fgf_e | dcBA B2 :|

